assets/icons/standard/activations.svg

<svg xmlns="http://www.w3.org/2000/svg" width="100" height="100" viewBox="0 0 100 100">
  <path d="M78,60a2,2,0,0,1,2,2V78a2,2,0,0,1-2,2H62a2,2,0,0,1-2-2V62a2,2,0,0,1,2-2ZM40.2,26.9l12.9.2a1.16,1.16,0,0,1,1.2,1.2h0l.2,12.9a1.16,1.16,0,0,1-1.2,1.2H51a1.16,1.16,0,0,1-1.2-1.2h0l-.1-4a.77.77,0,0,0-1.3-.6h0l-7.9,7.9A10.32,10.32,0,0,1,42,50a11.07,11.07,0,0,1-1.9,6.2l8.3,8.3a.77.77,0,0,0,1.3-.6h0l.1-4A1.16,1.16,0,0,1,51,58.7h0l2.4-.1a1.16,1.16,0,0,1,1.2,1.2h0l-.2,12.9a1.16,1.16,0,0,1-1.2,1.2h0l-12.9.2a1.16,1.16,0,0,1-1.2-1.2h0V70.6a1.16,1.16,0,0,1,1.2-1.2h0l4-.1a.77.77,0,0,0,.6-1.3h0l-8.4-8.4A11.24,11.24,0,0,1,31,61a11,11,0,1,1,6.2-20.1L45,33.1a.77.77,0,0,0-.6-1.3h0l-4-.1a1.16,1.16,0,0,1-1.2-1.2h0l-.1-2.4a1.08,1.08,0,0,1,1.1-1.2ZM74,66H66v8h8ZM31,45a5,5,0,1,0,5,5A5,5,0,0,0,31,45ZM78,20a2,2,0,0,1,2,2V38a2,2,0,0,1-2,2H62a2,2,0,0,1-2-2V22a2,2,0,0,1,2-2Zm-4,6H66v8h8Z" fill="#fff" />
</svg>

<?xml version="1.0"?><svg xmlns="http://www.w3.org/2000/svg" width="100" height="100" viewBox="0 0 100 100"><path d="m78 60a2 2 0 0 1 2 2v16a2 2 0 0 1-2 2h-16a2 2 0 0 1-2-2v-16a2 2 0 0 1 2-2z m-37.8-33.1l12.9 0.2a1.2 1.2 0 0 1 1.2 1.2l0.2 12.9a1.2 1.2 0 0 1-1.2 1.2h-2.3a1.2 1.2 0 0 1-1.2-1.2l-0.1-4a0.8 0.8 0 0 0-1.3-0.6l-7.9 7.9a10.3 10.3 0 0 1 1.5 5.5 11.1 11.1 0 0 1-1.9 6.2l8.3 8.3a0.8 0.8 0 0 0 1.3-0.6l0.1-4a1.2 1.2 0 0 1 1.2-1.2l2.4-0.1a1.2 1.2 0 0 1 1.2 1.2l-0.2 12.9a1.2 1.2 0 0 1-1.2 1.2l-12.9 0.2a1.2 1.2 0 0 1-1.2-1.2v-2.3a1.2 1.2 0 0 1 1.2-1.2l4-0.1a0.8 0.8 0 0 0 0.6-1.3l-8.4-8.4a11.2 11.2 0 0 1-5.5 1.4 11 11 0 1 1 6.2-20.1l7.8-7.8a0.8 0.8 0 0 0-0.6-1.3l-4-0.1a1.2 1.2 0 0 1-1.2-1.2l-0.1-2.4a1.1 1.1 0 0 1 1.1-1.2z m33.8 39.1h-8v8h8z m-43-21a5 5 0 1 0 5 5 5 5 0 0 0-5-5z m47-25a2 2 0 0 1 2 2v16a2 2 0 0 1-2 2h-16a2 2 0 0 1-2-2v-16a2 2 0 0 1 2-2z m-4 6h-8v8h8z" fill="#fff"></path></svg>
